flaticon/user-interface/browser-27.svg

<svg xmlns="http://www.w3.org/2000/svg" width="32" height="32" viewBox="0 0 24 24">
    <path d="M14.398438 19.199219C14.621094 19.199219 14.800781 19.019531 14.800781 18.800781 14.800781 18.578125 14.621094 18.398438 14.398438 18.398438L9.199219 18.398438C8.980469 18.398438 8.800781 18.578125 8.800781 18.800781 8.800781 19.019531 8.980469 19.199219 9.199219 19.199219zM16.398438 20L7.199219 20C6.980469 20 6.800781 20.179688 6.800781 20.398438 6.800781 20.621094 6.980469 20.800781 7.199219 20.800781L16.398438 20.800781C16.621094 20.800781 16.800781 20.621094 16.800781 20.398438 16.800781 20.179688 16.621094 20 16.398438 20zM2.800781 1.199219C1.917969 1.199219 1.199219 1.917969 1.199219 2.800781 1.199219 3.683594 1.917969 4.398438 2.800781 4.398438 3.683594 4.398438 4.398438 3.683594 4.398438 2.800781 4.398438 1.917969 3.683594 1.199219 2.800781 1.199219zM2.800781 3.601562C2.359375 3.601562 2 3.242188 2 2.800781 2 2.359375 2.359375 2 2.800781 2 3.242188 2 3.601562 2.359375 3.601562 2.800781 3.601562 3.242188 3.242188 3.601562 2.800781 3.601562zM6.398438 1.199219C5.519531 1.199219 4.800781 1.917969 4.800781 2.800781 4.800781 3.683594 5.519531 4.398438 6.398438 4.398438 7.28125 4.398438 8 3.683594 8 2.800781 8 1.917969 7.28125 1.199219 6.398438 1.199219zM6.398438 3.601562C5.957031 3.601562 5.601562 3.242188 5.601562 2.800781 5.601562 2.359375 5.957031 2 6.398438 2 6.839844 2 7.199219 2.359375 7.199219 2.800781 7.199219 3.242188 6.839844 3.601562 6.398438 3.601562zM10 1.199219C9.117188 1.199219 8.398438 1.917969 8.398438 2.800781 8.398438 3.683594 9.117188 4.398438 10 4.398438 10.882812 4.398438 11.601562 3.683594 11.601562 2.800781 11.601562 1.917969 10.882812 1.199219 10 1.199219zM10 3.601562C9.558594 3.601562 9.199219 3.242188 9.199219 2.800781 9.199219 2.359375 9.558594 2 10 2 10.441406 2 10.800781 2.359375 10.800781 2.800781 10.800781 3.242188 10.441406 3.601562 10 3.601562zM10 3.601562"/>
    <path d="M 0 0 L 0 24 L 24 24 L 24 0 Z M 0.800781 0.800781 L 23.199219 0.800781 L 23.199219 4.800781 L 0.800781 4.800781 Z M 23.199219 23.199219 L 0.800781 23.199219 L 0.800781 5.601562 L 23.199219 5.601562 Z M 23.199219 23.199219"/>
    <path d="M 8.582031 15.910156 L 8.5625 15.925781 L 8.957031 16.210938 C 8.96875 16.21875 8.980469 16.226562 8.996094 16.234375 C 9.070312 16.289062 9.152344 16.34375 9.230469 16.394531 C 9.28125 16.425781 9.332031 16.453125 9.378906 16.484375 C 9.457031 16.527344 9.53125 16.574219 9.613281 16.613281 C 9.675781 16.648438 9.746094 16.679688 9.8125 16.710938 C 9.878906 16.742188 9.945312 16.773438 10.015625 16.804688 C 10.148438 16.859375 10.285156 16.910156 10.421875 16.953125 C 10.472656 16.96875 10.519531 16.980469 10.570312 16.996094 C 10.671875 17.023438 10.777344 17.054688 10.882812 17.074219 C 10.9375 17.089844 10.992188 17.097656 11.046875 17.109375 C 11.152344 17.128906 11.261719 17.144531 11.371094 17.160156 C 11.421875 17.164062 11.46875 17.171875 11.519531 17.175781 C 11.679688 17.191406 11.839844 17.199219 12 17.199219 C 12.160156 17.199219 12.320312 17.191406 12.480469 17.175781 C 12.53125 17.171875 12.578125 17.164062 12.628906 17.15625 C 12.738281 17.144531 12.847656 17.128906 12.953125 17.109375 C 13.007812 17.097656 13.0625 17.085938 13.117188 17.074219 C 13.222656 17.050781 13.328125 17.023438 13.433594 16.996094 C 13.480469 16.980469 13.527344 16.96875 13.574219 16.953125 C 13.714844 16.910156 13.851562 16.859375 13.984375 16.804688 C 14.050781 16.777344 14.113281 16.746094 14.179688 16.714844 C 14.25 16.683594 14.320312 16.648438 14.390625 16.613281 C 14.464844 16.574219 14.539062 16.53125 14.613281 16.488281 C 14.664062 16.457031 14.71875 16.425781 14.773438 16.390625 C 14.847656 16.34375 14.925781 16.292969 15 16.242188 C 15.011719 16.230469 15.027344 16.222656 15.039062 16.210938 L 15.445312 15.921875 L 15.425781 15.902344 C 16.511719 14.949219 17.199219 13.554688 17.199219 12 C 17.199219 9.132812 14.867188 6.800781 12 6.800781 C 9.132812 6.800781 6.800781 9.132812 6.800781 12 C 6.800781 13.558594 7.492188 14.957031 8.582031 15.910156 Z M 10.929688 16.261719 C 10.769531 16.222656 10.613281 16.171875 10.457031 16.117188 C 10.441406 16.109375 10.421875 16.101562 10.40625 16.097656 C 10.25 16.035156 10.09375 15.964844 9.941406 15.886719 L 10.914062 15.355469 C 11.210938 15.191406 11.398438 14.878906 11.398438 14.542969 L 11.398438 13.867188 L 11.304688 13.753906 C 11.300781 13.75 10.980469 13.359375 10.863281 12.835938 L 10.808594 12.648438 L 10.671875 12.5625 L 10.683594 11.957031 L 10.816406 11.839844 L 10.816406 10.824219 L 10.8125 10.773438 C 10.8125 10.761719 10.785156 10.46875 10.992188 10.238281 C 11.179688 10.027344 11.53125 9.917969 12.011719 9.917969 C 12.492188 9.917969 12.84375 10.027344 13.03125 10.238281 C 13.238281 10.464844 13.210938 10.761719 13.207031 10.769531 L 13.207031 11.660156 L 13.21875 11.863281 L 13.351562 11.980469 L 13.351562 12.5625 C 13.351562 12.578125 13.335938 12.589844 13.324219 12.59375 L 13.125 12.65625 L 13.0625 12.851562 C 12.972656 13.128906 12.84375 13.386719 12.683594 13.613281 C 12.648438 13.664062 12.613281 13.710938 12.582031 13.746094 L 12.480469 13.859375 L 12.480469 14.554688 C 12.480469 14.90625 12.675781 15.226562 12.992188 15.382812 L 14.027344 15.902344 C 14.019531 15.902344 14.015625 15.90625 14.007812 15.910156 C 13.867188 15.980469 13.722656 16.046875 13.574219 16.101562 C 13.550781 16.113281 13.527344 16.121094 13.503906 16.128906 C 13.347656 16.183594 13.195312 16.234375 13.035156 16.269531 C 12.347656 16.433594 11.621094 16.429688 10.933594 16.261719 C 10.933594 16.261719 10.933594 16.261719 10.929688 16.261719 Z M 12 7.601562 C 14.425781 7.601562 16.398438 9.574219 16.398438 12 C 16.398438 13.367188 15.773438 14.589844 14.792969 15.394531 C 14.773438 15.382812 14.757812 15.371094 14.738281 15.359375 L 13.351562 14.667969 C 13.308594 14.648438 13.28125 14.601562 13.28125 14.554688 L 13.28125 14.152344 C 13.300781 14.128906 13.320312 14.101562 13.339844 14.074219 C 13.511719 13.828125 13.65625 13.554688 13.765625 13.261719 C 14.003906 13.113281 14.152344 12.851562 14.152344 12.5625 L 14.152344 11.980469 C 14.152344 11.816406 14.097656 11.652344 14.003906 11.515625 L 14.003906 10.84375 C 14.019531 10.699219 14.035156 10.167969 13.640625 9.71875 C 13.289062 9.320312 12.742188 9.117188 12.011719 9.117188 C 11.28125 9.117188 10.730469 9.320312 10.382812 9.71875 C 9.988281 10.167969 10.003906 10.699219 10.019531 10.84375 L 10.019531 11.515625 C 9.925781 11.652344 9.871094 11.816406 9.871094 11.980469 L 9.871094 12.5625 C 9.871094 12.785156 9.960938 12.996094 10.117188 13.152344 C 10.246094 13.609375 10.472656 13.964844 10.597656 14.144531 L 10.597656 14.542969 C 10.597656 14.589844 10.570312 14.632812 10.53125 14.652344 L 9.238281 15.359375 C 9.222656 15.367188 9.210938 15.378906 9.195312 15.386719 C 8.222656 14.578125 7.601562 13.359375 7.601562 12 C 7.601562 9.574219 9.574219 7.601562 12 7.601562 Z M 12 7.601562"/>
</svg>

<svg xmlns="http://www.w3.org/2000/svg" width="32" height="32" viewBox="0 0 24 24">
    <path d="M14.398 19.2a.401.401 0 1 0 0-.802H9.2a.401.401 0 0 0 0 .801zm0 0M16.398 20H7.2a.4.4 0 0 0 0 .8h9.2a.401.401 0 0 0 0-.8zm0 0M2.8 1.2c-.882 0-1.6.718-1.6 1.6a1.6 1.6 0 1 0 1.6-1.6zm0 2.402A.802.802 0 0 1 2.8 2a.802.802 0 0 1 0 1.602zm0 0M6.398 1.2A1.6 1.6 0 1 0 8 2.801c0-.884-.719-1.603-1.602-1.603zm0 2.402a.799.799 0 0 1-.796-.801.799.799 0 1 1 1.597 0c0 .441-.36.8-.8.8zm0 0M10 1.2c-.883 0-1.602.718-1.602 1.6A1.6 1.6 0 0 0 10 4.399a1.6 1.6 0 0 0 1.602-1.597c0-.883-.72-1.602-1.602-1.602zm0 2.402A.802.802 0 0 1 10 2a.802.802 0 0 1 0 1.602zm0 0"/>
    <path d="M0 0v24h24V0zm.8.8h22.4v4H.8zm22.4 22.4H.8V5.601h22.4zm0 0"/>
    <path d="M8.582 15.91l-.02.016.395.285a.344.344 0 0 0 .04.023c.073.055.155.11.233.16.051.032.102.06.149.09.078.043.152.09.234.13.063.034.133.066.2.097l.203.094c.132.054.27.105.406.148.05.016.098.027.148.043.102.027.207.059.313.078.055.016.11.024.164.035.105.02.215.036.324.051.05.004.098.012.149.016a4.945 4.945 0 0 0 .96 0c.051-.004.098-.012.149-.02.11-.011.219-.027.324-.047l.164-.035c.106-.023.211-.05.317-.078.046-.016.093-.027.14-.043a4.64 4.64 0 0 0 .41-.148c.067-.028.13-.059.196-.09.07-.031.14-.067.21-.102.075-.039.15-.082.223-.125.051-.031.106-.062.16-.097.075-.047.153-.098.227-.149.012-.012.027-.02.04-.031l.405-.29-.02-.019A5.18 5.18 0 0 0 17.2 12c0-2.867-2.332-5.2-5.199-5.2A5.205 5.205 0 0 0 6.8 12c0 1.559.692 2.957 1.782 3.91zm2.348.352a5.066 5.066 0 0 1-.524-.164 5.485 5.485 0 0 1-.465-.211l.973-.532a.934.934 0 0 0 .484-.812v-.676l-.093-.113a2.434 2.434 0 0 1-.442-.918l-.054-.188-.137-.085.012-.606.132-.117v-1.016l-.004-.05c0-.012-.027-.305.18-.536.188-.21.54-.32 1.02-.32s.832.11 1.02.32c.206.227.179.524.175.532v.89l.012.203.133.117v.582c0 .016-.016.028-.028.032l-.199.062-.063.196a2.835 2.835 0 0 1-.48.894l-.102.113v.696a.92.92 0 0 0 .512.828l1.035.52c-.007 0-.011.003-.02.007a4.294 4.294 0 0 1-.503.219 4.496 4.496 0 0 1-2.57.133h-.004zM12 7.602A4.403 4.403 0 0 1 16.398 12c0 1.367-.625 2.59-1.605 3.395l-.055-.036-1.386-.691a.126.126 0 0 1-.07-.113v-.403c.019-.023.038-.05.058-.078.172-.246.316-.52.426-.812a.821.821 0 0 0 .386-.7v-.582a.831.831 0 0 0-.148-.464v-.672a1.525 1.525 0 0 0-.363-1.125c-.352-.399-.899-.602-1.63-.602-.73 0-1.28.203-1.628.602-.395.449-.38.98-.363 1.125v.672a.831.831 0 0 0-.149.464v.582c0 .223.09.434.246.59.13.457.356.813.48.993v.398c0 .047-.027.09-.066.11l-1.293.706c-.015.008-.027.02-.043.028A4.398 4.398 0 0 1 12 7.602zm0 0"/>
</svg>
